!!!COM:	Anonymous
!!!OTL:	O rosa bella / He Robinet
!!!AGN:	Song; Chanson
!!!SCT:	Ano3028
!!!SCA:	Ano3028
!!!SMS:	Escorial B
!!!folio:	
!!!voices:	2
**kern	**kern
*staff2	*staff1
*Ivox	*Ivox
*I"Tenor	*I"Superius
*I'T	*I'S
*clefGv2	*clefG2
*k[b-]	*k[b-]
*M2/1	*M2/1
*met(C)	*met(C)
=1-	=1-
!	!LO:TX:Z=12:t=Upper voice by Bedyngham
1r	1.g
1G	.
.	2e
=2	=2
2A	2f
2A	4e
.	4f
1G	2g
.	2f
=3	=3
2r	1d
2G	.
2A	2r
2A	2c
=4	=4
2G	2d
2G	2B-
2c	1A
2c	.
=5	=5
2B-	1G
2G	.
1A	2r
.	2f
=6	=6
1B-	2g
.	2b-
1G	4a
.	4g
.	[2g
=7	=7
2A	4g]
.	4f#i
2A	4f#i
.	4e
1G	1g
=8	=8
*M2/1	*
*met(3)	*
3G	2r
3G	.
.	2d
3G	.
3%2G	2d
.	2d
3G	.
=9	=9
3%2d	2B-
.	2G
3d	.
3B-	2r
3B-	.
.	2d
3B-	.
=10	=10
3c	1e-
3c	.
3c	.
1G	1d
=11	=11
3r	2c
3r	.
.	2B-
3d	.
3d	1G
3%2e	.
=12	=12
3%2f	1A
3c	.
3c	1G
3%2B-	.
=13	=13
1A	2r
.	2f
3G	1g
3G	.
3G	.
=14	=14
1G	1b-
1r	[1a
=15	=15
*M2/1	*
*met(C|)	*
1d	2a]
.	2a
1B-	1g
=16	=16
1A	2g
.	1f
1G	.
.	[2e-
=17	=17
1F	4e-]
.	4d
.	2.d
1E	.
.	4c
.	4c
.	4B-
=18	=18
2D	1d
2D	.
2E	2r
2E	2g
=19	=19
2D	1f
2D	.
2G	1e
2G	.
=20	=20
2F	2d
2F	2d
1E	2r
.	2c
=21	=21
1D	2B-
.	2.d
2r	.
.	4c
2d	4B-
.	4A
=22	=22
2.B-	1G
4c	.
1d	2r
.	2f
=23	=23
2B-	2g
2c	1a
1d	.
.	2f
=24	=24
2B-	2g
2c	2f
2d	1d
2B-	.
=25	=25
2c	2e
2d	2.f
2B-	.
.	4g
2c	2a
=26	=26
1d	2b-
.	4a
.	4g
1d	[1f#il
=27	=27
0dl	0f#]
==	==
*-	*-
!!!RDF**kern: l=long note in original notation
!!!RDF**kern: i=editorial accidental
!!!ENC:	Chris Gage 03-05-2015
!!!END:	2015/03/14/
!!!EED:	Jesse Rodin
!!!EEV:	2016/02/22/
!!!ONB:	Translated from MusicXML and edited on 2016/02/22/ by Craig Sapp
!!muse2ps: C^@{COM}\n@{SMS} @{folio}^v85,150Q16
